!!!OTL: Uralter Marienruf
!!!ARE: Europa, Mitteleuropa, Deutschland
!!!SCT: A0591
!!!YEM: Copyright 1995, estate of Helmut Schaffrath.
**kern
*ICvox
*Ivox
*M4/1
*k[b-e-]
*g:
{1g
=1
1b-
1b-
1cc
1cc
=2
1dd
1dd
0dd}
=3
{1.cc
2dd
1ee
1ffn
=4
2ee
2dd
1ee
1dd
2r}
{2dd
=5
1gg
1ee
1ffn
1dd
=6
1cc
1b-
0a}
=7
{1cc
2cc
2cc
1cc
1cc
=8
1dd
1ee
0dd}
=9
{1cc
2cc
2cc
1cc
1cc
=10
1dd
1ee
0dd}
=11
{1cc
1b-
1cc
1a
=12
0g
0a
=13
0.g}
==
!!!AGN: Romanze, Ballade, Lied, religioeses Lied
!! Oeglin 1512 No. 1.
!!!ONB: ESAC (Essen Associative Code) Database: ALTDEU
!!!AMT: simple quadruple
!!!AIN: vox
!!!EED: Helmut Schaffrath
!!!EEV: 1.0
*-
